images/Logo-mini.svg

<svg width="164" height="120" viewBox="0 0 164 120" fill="none" xmlns="http://www.w3.org/2000/svg">
<path d="M38.8791 76.6005C59.9955 76.6005 77.1137 59.4823 77.1137 38.3659C77.1137 17.2495 59.9955 0.131348 38.8791 0.131348C17.7627 0.131348 0.644531 17.2495 0.644531 38.3659C0.644531 59.4823 17.7627 76.6005 38.8791 76.6005Z" fill="#00E600"/>
<path d="M156.728 53.6727C152.109 48.9642 145.769 46.6043 137.692 46.6043C125.338 46.268 118.392 49.5079 112.524 56.3241C112.496 56.3577 112.468 56.3913 112.439 56.4194C111.223 54.6593 109.827 53.0337 108.123 51.6492C103.992 48.2859 98.7959 46.6043 92.5459 46.6043C92.1871 46.6043 91.8564 46.6547 91.4976 46.6659L91.5201 46.6043C81.1556 46.4193 75.4829 48.8689 70.8192 52.9833L70.1914 48.6222H58.0781V119.144H71.632L72.1085 77.7928C72.1085 74.0428 72.8316 70.7973 74.2778 68.0562C75.7184 65.3152 77.2374 62.7311 79.7823 61.24C82.3272 59.749 85.2868 59.0035 88.6557 59.0035C93.4651 59.0035 97.26 60.4721 100.046 63.3981C102.832 66.3354 104.228 70.5899 104.228 76.1617V119.138H117.641L118.118 77.7873C118.118 74.0372 118.835 70.7693 120.281 67.9778C121.722 65.1863 123.241 62.5741 125.786 61.0831C128.331 59.592 131.291 58.8465 134.659 58.8465C139.469 58.8465 143.286 60.36 146.122 63.3869C148.959 66.4139 150.377 70.7188 150.377 76.2962V119.133H163.645V72.9834C163.645 64.8107 161.336 58.3701 156.717 53.6559L156.728 53.6727Z" fill="#1F305E"/>
</svg>

<svg width="164" height="120" fill="none" xmlns="http://www.w3.org/2000/svg"><path d="M38.88 76.6c21.115 0 38.234-17.118 38.234-38.234C77.114 17.25 59.995.13 38.879.13S.645 17.25.645 38.366 17.763 76.6 38.879 76.6Z" fill="#00E600"/><path d="M156.728 53.673c-4.619-4.709-10.959-7.069-19.036-7.069-12.354-.336-19.3 2.904-25.168 9.72-.028.034-.056.067-.085.095-1.216-1.76-2.612-3.385-4.316-4.77-4.131-3.363-9.327-5.045-15.577-5.045-.359 0-.69.05-1.048.062l.022-.062c-10.364-.185-16.037 2.265-20.7 6.38l-.629-4.362H58.078v70.522h13.554l.477-41.351c0-3.75.723-6.996 2.169-9.737 1.44-2.74 2.96-5.325 5.504-6.816 2.545-1.491 5.505-2.236 8.874-2.236 4.81 0 8.604 1.468 11.39 4.394 2.786 2.937 4.182 7.192 4.182 12.764v42.976h13.413l.477-41.35c0-3.75.717-7.019 2.163-9.81 1.441-2.792 2.96-5.404 5.505-6.895 2.545-1.491 5.505-2.236 8.873-2.236 4.81 0 8.627 1.513 11.463 4.54 2.837 3.027 4.255 7.332 4.255 12.91v42.836h13.268v-46.15c0-8.172-2.309-14.613-6.928-19.327l.011.017Z" fill="#1F305E"/></svg>
